X: 10842
T: LORD MACDONALD
Q: "Reel."
%R: reel
B: W. Hamilton "Universal Tune-Book" Vol. 1 Glasgow 1844 p.84 #2
S: http://imslp.org/wiki/Hamilton's_Universal_Tune-Book_(Various)
Z: 2016 John Chambers <jc:trillian.mit.edu>
M: C
L: 1/8
K: G
%%slurgraces yes
%%graceslurs yes
% - - - - - - - - - - - - - - - - - - - - - - - - -
B |\
d3e dBgB | dBgB aAAB |\
{e}d^cde dBgB | (A//B//c3/) BA BGG :|\
B |\
DGBG AGBG | DGBG AGEG |
DGBG AGBG | (A//B//c3/) BA BGGB |\
DGBG AGBG | DGBG AGEG |\
BAGF GFED | EFGA BGG |]
% - - - - - - - - - - - - - - - - - - - - - - - - -

%%sep 1 1 500
%%sep 1 1 500

